icons/tokens/0xEB4C2781e4ebA804CE9a9803C67d0893436bB27D/logo.svg

<svg xmlns="http://www.w3.org/2000/svg" width="32" height="32" viewBox="0 0 32 32">
  <g fill="none" fill-rule="evenodd">
    <path fill="#99999E" d="M32,16 C32,13.90592 31.58336,11.81184 30.78208,9.87712 C29.9808,7.9424 28.79456,6.16704 27.3136,4.6864 C25.83296,3.20544 24.0576,2.0192 22.12288,1.21792 C20.18816,0.41664 18.09408,0 16,0 C13.90592,0 11.81184,0.41664 9.87712,1.21792 C7.9424,2.0192 6.16704,3.20544 4.6864,4.6864 C3.20544,6.16704 2.0192,7.9424 1.21792,9.87712 C0.41664,11.81184 0,13.90592 0,16 C0,18.09408 0.41664,20.18816 1.21792,22.12288 C2.0192,24.0576 3.20544,25.83296 4.6864,27.3136 C6.16704,28.79456 7.9424,29.9808 9.87712,30.78208 C11.81184,31.58336 13.90592,32 16,32 C18.09408,32 20.18816,31.58336 22.12288,30.78208 C24.0576,29.9808 25.83296,28.79456 27.3136,27.3136 C28.79456,25.83296 29.9808,24.0576 30.78208,22.12288 C31.58336,20.18816 32,18.09408 32,16 Z"/>
    <path fill="#FFF" d="M15.34304,5.80080792 L17.096,6.2345505 L16.39264,9.03217426 C16.864,9.13767921 17.33792,9.24603564 17.79872,9.35977822 L17.79872,9.35977822 L18.49952,6.57989703 L20.25504,7.01268911 L19.53632,9.86734257 C21.75264,10.6258376 23.3728,11.7578772 23.05472,13.8670257 C22.82272,15.4093624 21.96064,16.1570851 20.81248,16.417204 C22.38784,17.2298772 23.1904,18.4750257 22.4272,20.6336 C21.47936,23.315897 19.22624,23.5421149 16.23392,22.9803723 L16.23392,22.9803723 L15.5072,25.8632238 L13.75168,25.4301149 L14.46784,22.5856 C14.01216,22.4747089 13.54816,22.355897 13.0688,22.2272634 L13.0688,22.2272634 L12.35008,25.0844515 L10.5952,24.6513426 L11.32128,21.763105 C10.91264,21.6601347 10.496,21.5486099 10.07104,21.4437386 C9.30912,21.2552238 8.54688,21.0670257 7.78496,20.8785109 L7.78496,20.8785109 L8.65696,18.8900752 L8.65696,18.8900752 L8.74897819,18.9142542 C9.04756898,18.992483 9.94902857,19.2270031 9.93312,19.2050059 C10.4304,19.3266693 10.65184,19.0063525 10.73792,18.7924911 L10.73792,18.7924911 L12.70944,10.9683327 C12.73088,10.6001743 12.6,10.1331644 11.88928,9.9576396 C11.91808,9.93989703 10.68096,9.65823366 10.616,9.64334257 L10.616,9.64334257 L11.08192,7.78639208 L13.50432,8.3845703 L13.50144,8.39502574 C13.86624,8.48310495 14.24096,8.56801584 14.62176,8.65577822 L14.62176,8.65577822 L15.34304,5.80080792 Z M14.6032,16.3088475 L13.63968,20.1358574 C14.82976,20.4276594 18.49952,21.595501 19.04352,19.4347089 C19.60896,17.1829861 15.79328,16.603501 14.6032,16.3088475 L14.6032,16.3088475 Z M15.9184,11.0846099 L15.04576,14.555501 C16.03584,14.8004119 19.09088,15.7987485 19.5856,13.8359762 C20.10112,11.7863921 16.91072,11.3295208 15.9184,11.0846099 L15.9184,11.0846099 Z"/>
  </g>
</svg>

<svg viewBox="0 0 32 32"><g fill="none" fill-rule="evenodd"><path fill="#99999E" d="M32 16c0-2.094-.417-4.188-1.218-6.123a16.047 16.047 0 00-3.468-5.19 16.047 16.047 0 00-5.191-3.47A16.055 16.055 0 0016 0c-2.094 0-4.188.417-6.123 1.218a16.047 16.047 0 00-5.19 3.468 16.047 16.047 0 00-3.47 5.191A16.055 16.055 0 000 16c0 2.094.417 4.188 1.218 6.123a16.047 16.047 0 003.468 5.19 16.047 16.047 0 005.191 3.47A16.055 16.055 0 0016 32c2.094 0 4.188-.417 6.123-1.218a16.047 16.047 0 005.19-3.468 16.047 16.047 0 003.47-5.191A16.055 16.055 0 0032 16z"/><path fill="#FFF" d="M15.343 5.8l1.753.435-.703 2.797c.471.106.945.214 1.406.328l.7-2.78 1.756.433-.719 2.854c2.217.759 3.837 1.89 3.519 4-.232 1.542-1.094 2.29-2.243 2.55 1.576.813 2.378 2.058 1.615 4.217-.948 2.682-3.2 2.908-6.193 2.346l-.727 2.883-1.755-.433.716-2.844c-.456-.111-.92-.23-1.4-.359l-.718 2.857-1.755-.433.726-2.888c-.408-.103-.825-.214-1.25-.32l-2.286-.564.872-1.989.092.024c.299.078 1.2.313 1.184.291.497.122.719-.199.805-.413l1.971-7.824c.022-.368-.109-.835-.82-1.01.03-.018-1.208-.3-1.273-.315l.466-1.857 2.422.599-.003.01c.365.088.74.173 1.12.26l.722-2.854zm-.74 10.509l-.963 3.827c1.19.292 4.86 1.46 5.404-.701.565-2.252-3.25-2.831-4.44-3.126zm1.315-5.224l-.872 3.47c.99.245 4.045 1.244 4.54-.719.515-2.05-2.675-2.506-3.668-2.751z"/></g></svg>
